src/pos-icons/marker-check.svg

<svg height="24" viewBox="0 0 24 24" width="24" xmlns="http://www.w3.org/2000/svg"><path d="m10 16-5-5 1.41-1.42 3.59 3.59 7.59-7.59 1.41 1.42m0-6h-14c-1.11 0-2 .89-2 2v12.93c0 .69.35 1.3.88 1.66l8.12 5.41 8.11-5.41c.53-.36.89-.97.89-1.66v-12.93c0-1.11-.9-2-2-2z"/></svg>

<?xml version="1.0" encoding="UTF-8"?><!DOCTYPE svg PUBLIC "-//W3C//DTD SVG 1.1//EN" "http://www.w3.org/Graphics/SVG/1.1/DTD/svg11.dtd"><svg xmlns="http://www.w3.org/2000/svg" xmlns:xlink="http://www.w3.org/1999/xlink" version="1.1" id="mdi-marker-check" width="24" height="24" viewBox="0 0 24 24"><path d="M10,16L5,11L6.41,9.58L10,13.17L17.59,5.58L19,7M19,1H5C3.89,1 3,1.89 3,3V15.93C3,16.62 3.35,17.23 3.88,17.59L12,23L20.11,17.59C20.64,17.23 21,16.62 21,15.93V3C21,1.89 20.1,1 19,1Z" /></svg>
